assets/Spouting whale/Flat/spouting_whale_flat.svg

<svg width="32" height="32" viewBox="0 0 32 32" fill="none" xmlns="http://www.w3.org/2000/svg">
<path d="M24.0837 6.59357C27.2837 8.94357 28.96 12.2088 29 16.4688C29 20.924 28.0612 24.1995 25.9169 26.4299C26.8128 27.1072 27.4375 27.5938 27.4375 27.5938C27.9688 28.0834 28.2812 29.0156 26.9063 29.0156C26.432 29.0156 26.0041 29.0219 25.6106 29.0277C24.4874 29.0443 23.6457 29.0567 22.8125 28.9063C22.6379 28.8748 22.4728 28.8386 22.316 28.798C22.2558 28.8224 22.1951 28.8465 22.134 28.8703C15.9315 26.6593 15.7759 25.89 15.5 21C15.3357 18.0889 12.9219 16.6094 11 16.5C9.50609 16.415 4.29245 16.1601 2.04455 16.0507C2.02515 15.6641 2.02056 15.2771 2.03125 14.8906C2.03125 12.2306 5.48437 9.99002 7.83371 9.99002H14.3837C17.8437 9.99002 20.6537 12.8 20.6537 16.26C20.4844 18.6719 24.0267 19.6662 24.4737 17.04C24.9665 14.1449 24.0859 10.8282 22.2422 8.50002C22.0469 8.45295 21.9338 8.45331 21.7969 8.5467C20.5391 9.80451 19.5587 9.85876 17.8672 9.46076C17.793 9.41307 17.7104 9.38571 17.6317 9.35964C17.4133 9.28731 17.2248 9.22485 17.3281 8.76545C17.4687 8.14045 18.5469 7.09357 18.5469 7.09357C19.3203 6.18732 20.4531 5.99982 20.9219 6.05451C21.173 6.0838 21.2955 6.1235 21.3651 6.14607C21.4255 6.16564 21.4462 6.17235 21.4766 6.14826C21.5419 6.09638 21.3906 5.78107 21.3906 5.78107C21.2266 4.90607 21.25 4.37482 21.7537 3.67002C21.7537 3.67002 22.5552 2.52335 23.2737 2.16002C23.9922 1.7967 24.2812 2.15997 24.4375 2.52349C24.9299 3.66911 24.9922 5.09375 24.0837 6.14826L24.0786 6.16047C24.0051 6.33602 23.982 6.39113 23.9937 6.43738C23.9991 6.45854 24.0118 6.47785 24.0303 6.50599C24.0448 6.52804 24.0628 6.55552 24.0837 6.59357Z" fill="#00A6ED"/>
<path d="M7.19371 25H14.2137L10.4837 27.84C9.49371 28.59 8.29371 29 7.05371 29H3.67188C3.16188 29 2.94187 28.35 3.35188 28.04L7.19371 25Z" fill="#00A6ED"/>
<path d="M21.2444 28.3997C16.8461 26.899 16.7599 25.3587 16.5158 20.9994L16.5 20.7188C16.3357 17.8077 12.7344 16.1094 10.8125 16C8.89062 15.8907 2.04688 16 2.04688 16L2.07964 16.5717C2.68767 23.7672 8.36776 30.6245 16.0164 30.0947C18.5087 29.9221 20.5956 29.4964 22.316 28.798C21.9113 28.6933 21.5613 28.5591 21.2444 28.3997Z" fill="#AEDDFF"/>
<path d="M15.517 15.0001C15.1867 15.0001 14.9127 14.7261 14.9127 14.3958V13.6384C14.9127 13.3081 15.1867 13.0342 15.517 13.0342C15.8473 13.0342 16.1213 13.3081 16.1213 13.6384V14.3958C16.1213 14.7342 15.8473 15.0001 15.517 15.0001Z" fill="#1C1C1C"/>
<path d="M18.0957 4.125C18.7677 4.125 19.3125 3.58022 19.3125 2.9082C19.3125 2.23618 18.7677 1.69141 18.0957 1.69141C17.4237 1.69141 16.8789 2.23618 16.8789 2.9082C16.8789 3.58022 17.4237 4.125 18.0957 4.125Z" fill="#26EAFC"/>
<path d="M4.00372 9C4.556 9 5.00372 8.55228 5.00372 8C5.00372 7.44772 4.556 7 4.00372 7C3.45143 7 3.00372 7.44772 3.00372 8C3.00372 8.55228 3.45143 9 4.00372 9Z" fill="#26EAFC"/>
<path d="M11.0037 2.83C11.5337 2.32 12.2337 2 13.0037 2C14.6637 2 16.0037 3.34 16.0037 5V5.47C16.0037 6.31 15.3137 7.02 14.4737 7C13.6637 6.98 13.0037 6.32 13.0037 5.5C13.0037 5.23 12.7737 5 12.5037 5C12.2437 5 12.0337 5.19 12.0037 5.43L11.5737 8.5C11.5337 8.79 11.2937 9 11.0037 9C10.7137 9 10.4737 8.79 10.4337 8.5L10.0037 5.43C9.97372 5.19 9.76372 5 9.50372 5C9.23372 5 9.00372 5.23 9.00372 5.5C9.00372 6.32 8.34372 6.98 7.53372 7C6.69372 7.02 6.00372 6.31 6.00372 5.47V5C6.00372 3.34 7.34372 2 9.00372 2C9.77372 2 10.4737 2.32 11.0037 2.83Z" fill="#26EAFC"/>
</svg>

<svg xmlns="http://www.w3.org/2000/svg" width="32" height="32" fill="none"><path fill="#00A6ED" d="M24.084 6.594c3.2 2.35 4.876 5.615 4.916 9.875 0 4.455-.939 7.73-3.083 9.96.896.678 1.52 1.165 1.52 1.165.532.49.844 1.422-.53 1.422-.475 0-.903.006-1.296.012-1.124.016-1.965.029-2.799-.122a6.785 6.785 0 0 1-.496-.108c-.06.024-.12.049-.182.072-6.203-2.21-6.358-2.98-6.634-7.87-.164-2.911-2.578-4.39-4.5-4.5-1.494-.085-6.708-.34-8.955-.45-.02-.386-.024-.773-.014-1.16 0-2.66 3.453-4.9 5.803-4.9h6.55c3.46 0 6.27 2.81 6.27 6.27-.17 2.412 3.373 3.406 3.82.78.492-2.895-.388-6.212-2.232-8.54-.195-.047-.308-.047-.445.047-1.258 1.258-2.238 1.312-3.93.914-.074-.048-.157-.075-.235-.101-.219-.073-.407-.135-.304-.595.14-.625 1.219-1.671 1.219-1.671.773-.907 1.906-1.094 2.375-1.04.251.03.373.07.443.092.06.02.081.026.112.002.065-.052-.086-.367-.086-.367-.164-.875-.141-1.406.363-2.111 0 0 .801-1.147 1.52-1.51.718-.363 1.007 0 1.163.363.493 1.146.555 2.57-.353 3.625l-.005.012c-.074.176-.097.231-.085.277.005.022.018.04.036.069.015.022.033.05.054.088Z"/><path fill="#00A6ED" d="M7.194 25h7.02l-3.73 2.84c-.99.75-2.19 1.16-3.43 1.16H3.672c-.51 0-.73-.65-.32-.96L7.194 25Z"/><path fill="#AEDDFF" d="M21.244 28.4c-4.398-1.501-4.484-3.041-4.728-7.4l-.016-.281c-.164-2.911-3.766-4.61-5.688-4.719-1.921-.11-8.765 0-8.765 0l.033.572c.608 7.195 6.288 14.053 13.936 13.523 2.493-.173 4.58-.599 6.3-1.297a5.328 5.328 0 0 1-1.072-.398Z"/><path fill="#1C1C1C" d="M15.517 15a.609.609 0 0 1-.604-.604v-.758c0-.33.274-.604.604-.604.33 0 .604.274.604.604v.758a.604.604 0 0 1-.604.604Z"/><path fill="#26EAFC" d="M18.096 4.125a1.217 1.217 0 1 0 0-2.434 1.217 1.217 0 0 0 0 2.434ZM4.004 9a1 1 0 1 0 0-2 1 1 0 0 0 0 2ZM11.004 2.83c.53-.51 1.23-.83 2-.83 1.66 0 3 1.34 3 3v.47c0 .84-.69 1.55-1.53 1.53-.81-.02-1.47-.68-1.47-1.5 0-.27-.23-.5-.5-.5-.26 0-.47.19-.5.43l-.43 3.07c-.04.29-.28.5-.57.5-.29 0-.53-.21-.57-.5l-.43-3.07a.499.499 0 0 0-.5-.43c-.27 0-.5.23-.5.5 0 .82-.66 1.48-1.47 1.5-.84.02-1.53-.69-1.53-1.53V5c0-1.66 1.34-3 3-3 .77 0 1.47.32 2 .83Z"/></svg>
